markets/AMZN.svg

<svg width="42" height="42" viewBox="0 0 42 42" fill="none" xmlns="http://www.w3.org/2000/svg">
<circle cx="21" cy="21" r="21" fill="white"/>
<path d="M5.86626 29.902C8.77658 33.2916 12.6798 35.7226 17.0282 36.8525C20.9315 37.64 25.0059 37.2291 28.6353 35.5857C30.45 34.7639 32.0934 33.5998 33.4972 32.1617C33.6342 31.9563 33.5657 31.6824 33.3603 31.5454C33.1891 31.477 32.9494 31.477 32.7782 31.5454C30.1076 32.915 27.2315 33.8737 24.2869 34.3873C21.1711 34.7297 18.0211 34.5242 15.0081 33.7367C11.9266 32.7096 8.98202 31.2373 6.31136 29.3541C6.10593 29.2857 5.90049 29.3884 5.86626 29.5938C5.83202 29.7308 5.83202 29.8335 5.86626 29.902Z" fill="#F39700"/>
<path d="M30.5527 30.6213C31.7168 30.3816 32.9152 30.3473 34.1136 30.4501H34.1478C34.5244 30.5528 34.7641 30.9294 34.6956 31.3403C34.456 32.5044 34.0793 33.6343 33.6 34.6957C33.5657 34.7984 33.6342 34.9011 33.7369 34.9354C33.8054 34.9696 33.8397 34.9354 33.9081 34.9011C35.3462 33.7713 36.1679 32.0593 36.1679 30.2104C36.2022 29.731 35.894 29.3202 35.4147 29.2517C33.6685 28.9435 31.888 29.3202 30.3815 30.2789C30.313 30.3473 30.2788 30.4501 30.3473 30.5528C30.4157 30.6213 30.4842 30.6555 30.5527 30.6213Z" fill="#F39700"/>
<path d="M24.5266 25.9989C23.9103 26.6837 23.1913 27.3 22.4038 27.8478C20.9315 28.7038 19.2538 29.1832 17.5418 29.2174C16.0353 29.1832 14.563 28.6696 13.3646 27.7794C11.3445 25.9304 10.557 23.1228 11.3788 20.4864C12.132 18.1924 13.8782 16.3435 16.138 15.4875C18.6032 14.7343 21.1712 14.3576 23.7733 14.3576V11.6527C23.6021 10.4201 22.6092 9.46142 21.3766 9.32447C20.5891 9.22175 19.8358 9.32447 19.1168 9.63262C18.0896 10.112 17.3706 11.0364 17.1309 12.1663C16.9597 12.5087 16.5831 12.7141 16.2065 12.6457L12.5087 12.3033C12.1663 12.2006 11.9266 11.9266 11.8924 11.55C12.1663 9.7011 13.125 8.09186 14.5288 6.92773C16.4119 5.48968 18.7402 4.70218 21.1369 4.73642C23.3282 4.77066 25.4853 5.45544 27.3 6.75653C28.8065 8.02338 29.6282 9.90653 29.5255 11.8582V21.2054C29.5597 21.9929 29.7652 22.7804 30.1076 23.4652L31.2717 25.1429C31.4087 25.4169 31.4087 25.6908 31.2717 25.9647L27.8478 28.875C27.5396 29.0462 27.1972 29.012 26.9233 28.8408C26.0331 27.9848 25.2114 27.0261 24.5266 25.9989ZM23.7391 17.5076C22.6777 17.4734 21.582 17.5419 20.5206 17.7131C19.2195 17.987 18.1239 18.8429 17.4733 20.0071C16.9597 21.2739 17.0282 22.712 17.713 23.9446C18.5347 24.9717 19.9386 25.3141 21.1369 24.8348C22.5407 23.9446 23.4994 22.4723 23.7391 20.7946V17.5076Z" fill="black"/>
</svg>

<svg xmlns="http://www.w3.org/2000/svg" width="42" height="42" fill="none"><circle cx="21" cy="21" r="21" fill="#fff"/><path fill="#F39700" d="M5.866 29.902a22.02 22.02 0 0 0 11.162 6.95c3.904.788 7.978.377 11.607-1.266a16.057 16.057 0 0 0 4.862-3.424.446.446 0 0 0-.137-.617.851.851 0 0 0-.582 0 29.907 29.907 0 0 1-8.491 2.842c-3.116.343-6.266.137-9.279-.65a33.476 33.476 0 0 1-8.697-4.383c-.205-.068-.41.034-.445.24-.034.137-.034.24 0 .308Z"/><path fill="#F39700" d="M30.553 30.621c1.164-.24 2.362-.274 3.56-.17h.035c.376.102.616.478.548.89a16.038 16.038 0 0 1-1.096 3.355c-.034.102.034.205.137.24.068.034.103 0 .171-.035 1.438-1.13 2.26-2.842 2.26-4.69.034-.48-.274-.89-.753-.96-1.746-.308-3.527.07-5.034 1.028-.068.068-.102.171-.034.274.069.068.137.102.206.068Z"/><path fill="#000" d="M24.527 25.999a12.283 12.283 0 0 1-2.123 1.849 10.096 10.096 0 0 1-4.862 1.37 7.322 7.322 0 0 1-4.177-1.439c-2.02-1.849-2.808-4.656-1.986-7.293a8.015 8.015 0 0 1 4.759-4.998 26.097 26.097 0 0 1 7.635-1.13v-2.705a2.726 2.726 0 0 0-2.396-2.329c-.788-.102-1.541 0-2.26.309-1.027.479-1.746 1.403-1.986 2.533a.873.873 0 0 1-.925.48l-3.697-.343a.844.844 0 0 1-.617-.753c.274-1.849 1.233-3.458 2.637-4.622a10.655 10.655 0 0 1 6.608-2.192 10.86 10.86 0 0 1 6.163 2.02 6.233 6.233 0 0 1 2.226 5.102v9.347c.034.788.24 1.575.582 2.26l1.164 1.678a.873.873 0 0 1 0 .822l-3.424 2.91a.895.895 0 0 1-.925-.034 17.28 17.28 0 0 1-2.396-2.842Zm-.788-8.491a16.952 16.952 0 0 0-3.218.205c-1.302.274-2.397 1.13-3.048 2.294a4.553 4.553 0 0 0 .24 3.938 2.978 2.978 0 0 0 3.424.89 5.742 5.742 0 0 0 2.602-4.04v-3.287Z"/></svg>
